X:1
T:Le Fils Des Étoiles
T:Le Fils Des Étoiles
T:Erik Satie
C:Erik Satie
%%score { ( 1 3 ) | ( 2 4 ) }
L:1/8
Q:1/4=80
M:8/4
K:C
V:1 treble nm="Piano" snm="Pno."
V:3 treble 
V:2 bass 
V:4 bass 
V:1
"^Prélude de 1er Acte\n""^(La Vocation)""^En blanc et immobile" [_Adg]2 [_B=e=a]2 [_dgc']2 [_dgc']8- [dgc'] z | %1
 [_EAd]2 [F=B=e]2 [_Adg]2 [_Adg]8- [Adg] z | [_Adg]2 [_B=e=a]2 [_dgc']2 [_dgc']8- [dgc'] z | %3
 [_EAd]2 [F=B=e]2 [_Adg]2 [_Adg]8- [Adg] z |"^Toujours" [F=B=e]2 [G^c^f]2 [_Bea]2 [Bea]8- [Bea] z | %5
 [C^FB]2 [D^G^c]2 [=FBe]2 [FBe]8- [FBe] z | [F=B=e]2 [G^c^f]2 [_Bea]2 [Bea]8- [Bea] z | %7
 [C^FB]2 [D^G^c]2 [=FBe]2 [FBe]8- [FBe] z |[M:4/4]"^Précieusement" [A,^C]4 [^GB]4 | %9
 [A,^C]4 [D^G]2 [^GB]2 |[M:5/4] [^G,B,E][^F,^F][^G,B,E][^F,^F] [^F,A,D]6 | %11
[M:4/4]"^Pâle et hiératique" [d=fad']2 [dfad']4 [Aa]2 | [^c^f^a^c']2 [^c^f^a^c']4 [^G^g]2 | %13
 [^A=d^f^a]2 [^A=d^f^a]4 [^c^c']2 | [Be]4 [f=a]2 [^c^f]2 | [^F^A^c^f]2 [^F^A^c^f]4 [^G^g]2 | %16
 [df=ad']8 |[M:6/4]"^Comme une douce demande" z [G,G][A,A][Cc] [DF_Bc]4 [A^f]4 | %18
[M:2/4] z [G,G][A,A][C=c] |[M:6/4] z [D,D][E,E][G,G] [A,=C=FG]4 [E^c]4 | %20
[M:2/4] z [D,D][E,E][G,=G] |[M:6/4] z [G,G][A,A][Cc] [DF_Bc]4 [A^f]4 |[M:2/4] z [G,G][A,A][C=c] | %23
[M:6/4] z [D,D][E,E][G,G] [A,=C=FG]4 [E^c]4 |[M:2/4] z [D,D][E,E][G,=G] | %25
[M:6/4]"^Toujours" z [E,E][^F,^F][A,A] [B,D=GA]4 [^F^d]4 |[M:2/4] z [E,E][^F,^F][A,=A] | %27
[M:6/4] z [B,,B,][^C,^C][E,E] [^F,=A,=DE]4 [^C^A]4 |[M:2/4] z [B,,B,][^C,^C][E,=E] | %29
[M:6/4] z [E,E][^F,^F][A,A] [B,D=GA]4 [^F^d]4 |[M:2/4] z [E,E][^F,^F][A,=A] | %31
[M:6/4] z [B,,B,][^C,^C][E,E] [^F,=A,=DE]4 [^C^A]4 | %32
[M:2/4]"^Précieusement" z [B,,B,][^C,^C][E,=E] |[M:4/4] [A,^C]4 [^GB]4 | [A,^C]4 [D^G]2 [^GB]2 | %35
[M:5/4] [^G,B,E][^F,^F][^G,B,E][^F,^F] [^F,A,D]6 | %36
[M:4/4]"^Pâle et hiératique" [d=fad']2 [dfad']4 [Aa]2 | [^c^f^a^c']2 [^c^f^a^c']4 [^G^g]2 | %38
 [^A=d^f^a]2 [^A=d^f^a]4 [^c^c']2 | [Be]4 [f=a]2 [^c^f]2 | [^F^A^c^f]2 [^F^A^c^f]4 [^G^g]2 | %41
 [df=ad']8 |] %42
[M:4/4]"^Prélude du 2e Acte""^(Thème doecoratif: La salle du Grand Temple)""^Dans la tête" [DG_B]4 [=E=e]2- [Ee] z | %43
 [=B,EG]4 [^C^c]2- [Cc] z | [A,DF]4 [=B,=B]2- [B,B] z |"^Moins haut" [_Bea]2 [_Adg]2 [_B=ea]4 | %46
 [_B=ea]4- [Bea]2- [Bea] z |"^Montant" [EAc]4 [^F^f]2- [Ff] z | [C=F_A]4 [=D=d]2- [Dd] z | %49
 [=G,C_E]4 [=A,=A]2- [A,A] z | [_Gcf]2 [_F_B_e]2 [_G=c=f]4 | %51
 [_Gcf]4-"^Courageusement facile et complaisament solitaire" [Gcf]2- [Gcf] z | %52
 (3[=B,=D]EG (3[CEA]Bd [D^F^c]2 [EG=c]2 |[M:3/4] (3[D^F^c]dc [=CEA]4 | %54
[M:4/4] (3[B,D]EG (3[CEA]Bd [D^F^c]2 [EG=c]2 |[M:2/4] (3[D^F^c]dc [=CEA]2 | %56
[M:4/4] (3[_A,C]DF (3[G,_E]FG [F,F]2 [G,_E]2 |[M:3/4] [G,G]2- [G,G] z z2 | %58
[M:4/4]"^De même" (3[EG]Ac (3[FAd]eg [GB^f]2 [Ac=f]2 |[M:3/4] (3[GB^f]gf [=FAd]4 | %60
[M:4/4] (3[EG]Ac (3[FAd]eg [GB^f]2 [Ac=f]2 |[M:2/4] (3[GB^f]gf [=FAd]2 | %62
[M:4/4] (3[_DF]G_B (3[C_A]Bc [_B,_B]2 [C_A]2 |[M:3/4] [Cc]2- [Cc] z z2 | %64
[M:5/4]"^Precieusement" [df=ad']2 [ceb]2 [B^d^a]2- [Bda]4 |[M:3/4] [=d=f=a=d']2 [ceb]4 | %66
[M:5/4] [Bd^fb]2 [A^c^g]2 [^G^B^^f]2- [GBf]4 |[M:3/4] [=B=d^f=b]2 [A^c^g]4 | %68
[M:5/4]"^Tomber jusqu'a l'affaiblissement" [=G_Bd=g]2 [=FAe]2 [E^G^d]2- [EGd]4 | %69
[M:3/4] [=G_B=d=g]2 [FAe]4 |[M:5/4] [DFAd]2 [CE=B]2 [B,^D^A]2- [B,DA]4 |[M:3/4] [=DFA=d]2 [CEB]4 | %72
[M:4/4] [FAe]2 [E^G^d]2 [_E=G=d]2 [=E^G^d]2 | [FAe]8- | %74
"^Courageusement facile et complaisamemt solitaire" [FAe]4- [FAe]2- [FAe] z | %75
 (3[^FA]Bd (3[GBe]^fa [A^c^g]2 [Bd=g]2 |[M:3/4] (3[A^c^g]ag [=GBe]4 | %77
[M:4/4]"^De même" (3[^FA]Bd (3[GBe]^fa [A^c^g]2 [Bd=g]2 |[M:2/4] (3[A^c^g]ag [=GBe]2 | %79
[M:4/4] (3[_EG]Ac (3[D_B]cd [Cc]2 [D_B]2 |[M:3/4] [Dd]2- [Dd] z z2 | %81
[M:4/4]"^Toujours" (3[^CE]^FA (3[D^FB]^ce [E^G^d]2 [^FA=d]2 |[M:3/4] (3[E^G^d]ed [=D^FB]4 | %83
[M:4/4] (3[^CE]^FA (3[D^FB]^ce [E^G^d]2 [^FA=d]2 |[M:2/4] (3[E^G^d]ed [=D^FB]2 | %85
[M:4/4] (3[_B,D]EG (3[A,=F]GA [G,G]2 [A,F]2 |[M:3/4] [A,A]2- [A,A] z z2 | %87
[M:5/4]"^Precieusement" [egbe']2 [d^f^c']2 [^c^e^b]2- [ceb]4 |[M:3/4] [=e=g=b=e']2 [d^f^c']4 | %89
[M:5/4] [D=FAd]2 [CEB]2 [B,^D^A]2- [B,DA]4 |[M:3/4] [=D=F=A=d]2 [CEB]4 |[M:4/4] [^f^f']8 |] z8 |] %93
V:2
 [F,_B,_E]2 [G,CF]2 [_B,_E_A]2 [_B,_E_A]8- [B,EA] z | %1
 [C,F,_B,]2 [D,G,C]2 [F,_B,_E]2 [F,_B,_E]8- [F,B,E] z | %2
 [F,_B,_E]2 [G,CF]2 [_B,_E_A]2 [_B,_E_A]8- [B,EA] z | %3
 [C,F,_B,]2 [D,G,C]2 [F,_B,_E]2 [F,_B,_E]8- [F,B,E] z | %4
 [D,G,C]2 [E,A,D]2 [G,=C=F]2 [G,CF]8- [G,CF] z | %5
 [A,,D,G,]2 [B,,E,A,]2 [D,=G,C]2 [D,G,C]8- [D,G,C] z | %6
 [D,G,C]2 [E,A,D]2 [G,=C=F]2 [G,CF]8- [G,CF] z | %7
 [A,,D,G,]2 [B,,E,A,]2 [D,=G,C]2 [D,G,C]8- [D,G,C] z |[M:4/4] [^F,,^C,]4 [B,,^F,]4 | %9
 [^F,,^C,]4 [B,,^F,]4 |[M:5/4] [E,,B,,]4 [D,,A,,]6 |[M:4/4] [D,=F,A,D]2 [D,F,A,D]4 [A,,A,]2 | %12
 [^C,^F,^A,^C]2 [^C,^F,^A,^C]4 [^G,,^G,]2 | [^A,,=D,^F,^A,]2 [^A,,=D,^F,^A,]4 [^C,^C]2 | %14
 [E,=G,B,E]4 [D,F,A,D]2 [^C,^F,^A,^C]2 | [^F,,^A,,^C,^F,]2 [^F,,^A,,^C,^F,]4 [^G,,^G,]2 | %16
 [D,,F,,=A,,D,]8 |[M:6/4] [G,,,G,,]8- [G,,,G,,]4 |[M:2/4] [G,,,G,,]4 | %19
[M:6/4] [D,,,D,,]8- [D,,,D,,]4 |[M:2/4] [D,,,D,,]4 |[M:6/4] [G,,,G,,]8- [G,,,G,,]4 | %22
[M:2/4] [G,,,G,,]4 |[M:6/4] [D,,,D,,]8- [D,,,D,,]4 |[M:2/4] [D,,,D,,]4 | %25
[M:6/4] [E,,,E,,]8- [E,,,E,,]4 |[M:2/4] [E,,,E,,]4 |[M:6/4] [B,,,B,,]8- [B,,,B,,]4 | %28
[M:2/4] [B,,,B,,]4 |[M:6/4] [E,,,E,,]8- [E,,,E,,]4 |[M:2/4] [E,,,E,,]4 | %31
[M:6/4] [B,,,B,,]8- [B,,,B,,]4 |[M:2/4] [B,,,B,,]4 |[M:4/4] [^F,,^C,]4 [B,,^F,]4 | %34
 [^F,,^C,]4 [B,,^F,]4 |[M:5/4] [E,,B,,]4 [D,,A,,]6 |[M:4/4] [D,=F,A,D]2 [D,F,A,D]4 [A,,A,]2 | %37
 [^C,^F,^A,^C]2 [^C,^F,^A,^C]4 [^G,,^G,]2 | [^A,,=D,^F,^A,]2 [^A,,=D,^F,^A,]4 [^C,^C]2 | %39
 [E,=G,B,E]4 [D,F,A,D]2 [^C,^F,^A,^C]2 | [^F,,^A,,^C,^F,]2 [^F,,^A,,^C,^F,]4 [^G,,^G,]2 | %41
 [D,,F,,=A,,D,]8 |][M:4/4] [C,F,_A,]4- [C,F,A,]2- [C,F,A,] z | %43
 [=A,,D,F,]4- [A,,D,F,]2- [A,,D,F,] z | [G,,=C,_E,]4- [G,,C,E,]2- [G,,C,E,] z | %45
 [G,CF]2 [F,_B,_E]2 [G,CF]4 | [G,CF]4- [G,CF]2- [G,CF] z | [D,G,_B,]4- [D,G,B,]2- [D,G,B,] z | %48
 [_B,,_E,_G,]4- [B,,E,G,]2- [B,,E,G,] z | [F,,_B,,_D,]4- [F,,B,,D,]2- [F,,B,,D,] z | %50
 [_E,_A,_D]2 [_D,_G,_C]2 [_E,_A,_D]4 | [_E,_A,_D]4- [E,A,D]2- [E,A,D] z | %52
 [=G,,=D,]2 [D,^F,]2 [E,G,]2 [^F,A,]2 |[M:3/4] [E,G,]2 [D,^F,]4 | %54
[M:4/4] [G,,D,]2 [D,^F,]2 [E,G,]2 [^F,A,]2 |[M:2/4] [E,G,]2 [D,^F,]2 | %56
[M:4/4] [=F,,C,]2 [_E,,_B,,]2 [D,,=A,,]2 [_E,,_B,,]2 |[M:3/4] [_E,,_B,,]2- [E,,B,,] z z2 | %58
[M:4/4] [C,G,]2 [G,B,]2 [A,C]2 [B,D]2 |[M:3/4] [A,C]2 [G,B,]4 | %60
[M:4/4] [C,G,]2 [G,B,]2 [A,C]2 [B,D]2 |[M:2/4] [A,C]2 [G,B,]2 | %62
[M:4/4] [_B,,F,]2 [_A,,_E,]2 [G,,=D,]2 [_A,,_E,]2 |[M:3/4] [_A,,_E,]2- [A,,E,] z z2 | %64
[M:5/4] [G,DB]2 [EG]2 [^D^F]2- [DF]4 |[M:3/4] [G,=DB]2 [EG]4 | %66
[M:5/4] [E,B,^G]2 [^CE]2 [^B,^D]2- [B,D]4 |[M:3/4] [E,=B,^G]2 [^CE]4 | %68
[M:5/4] [=C,=G,E]2 [A,=C]2 [^G,B,]2- [G,B,]4 |[M:3/4] [C,=G,E]2 [A,C]4 | %70
[M:5/4] [G,,D,=B,]2 [E,G,]2 [^D,^F,]2- [D,F,]4 |[M:3/4] [G,,D,B,]2 [E,G,]4 | %72
[M:4/4] [A,C]2 [^G,B,]2 [=G,_B,]2 [^G,=B,]2 | [A,C]8- | [A,C]4- [A,C]2- [A,C] z | %75
 [D,A,]2 [A,^C]2 [B,D]2 [^CE]2 |[M:3/4] [B,D]2 [A,^C]4 |[M:4/4] [D,A,]2 [A,^C]2 [B,D]2 [^CE]2 | %78
[M:2/4] [B,D]2 [A,^C]2 |[M:4/4] [=C,G,]2 [_B,,F,]2 [=A,,=E,]2 [_B,,F,]2 | %80
[M:3/4] [_B,,F,]2- [B,,F,] z z2 |[M:4/4] [A,,E,]2 [E,^G,]2 [^F,A,]2 [^G,B,]2 | %82
[M:3/4] [^F,A,]2 [E,^G,]4 |[M:4/4] [A,,E,]2 [E,^G,]2 [^F,A,]2 [G,B,]2 |[M:2/4] [^F,A,]2 [E,^G,]2 | %85
[M:4/4] [=G,,D,]2 [=F,,C,]2 [E,,B,,]2 [F,,C,]2 |[M:3/4] [F,,C,]2- [F,,C,] z z2 | %87
[M:5/4] [A,E^c]2 [^FA]2 [^E^G]2- [EG]4 |[M:3/4] [A,=E^c]2 [^FA]4 | %89
[M:5/4] [G,,D,B,]2 [E,G,]2 [^D,^F,]2- [D,F,]4 |[M:3/4] [G,,=D,B,]2 [E,G,]4 |[M:4/4] [^F,,,^F,,]8 |] %92
 z8 |] %93
V:3
 x16 | x16 | x16 | x16 | x16 | x16 | x16 | x16 |[M:4/4] ^F[^C^c][Dd][^F^f] [Dd][Ee][^F^f][Aa] | %9
 ^F[^C^c][Dd][^F^f] [B,B][^C^c][Ee][Ee] |[M:5/4] x10 |[M:4/4] x8 | x8 | x8 | %14
 [=G=g][^A^a][Bb][^c^c'] [dd'][^c^c'][^A^a][Aa] | x8 | x8 |[M:6/4] x12 |[M:2/4] x4 |[M:6/4] x12 | %20
[M:2/4] x4 |[M:6/4] x12 |[M:2/4] x4 |[M:6/4] x12 |[M:2/4] x4 |[M:6/4] x12 |[M:2/4] x4 | %27
[M:6/4] x12 |[M:2/4] x4 |[M:6/4] x12 |[M:2/4] x4 |[M:6/4] x12 |[M:2/4] x4 | %33
[M:4/4] ^F[^C^c][Dd][^F^f] [Dd][Ee][^F^f][Aa] | ^F[^C^c][Dd][^F^f] [B,B][^C^c][Ee][Ee] | %35
[M:5/4] x10 |[M:4/4] x8 | x8 | x8 | [=G=g][^A^a][Bb][^c^c'] [dd'][^c^c'][^A^a][Aa] | x8 | x8 |] %42
[M:4/4] x8 | x8 | x8 | x8 | x8 | x8 | x8 | x8 | x8 | x8 | x8 |[M:3/4] x6 |[M:4/4] x8 |[M:2/4] x4 | %56
[M:4/4] x8 |[M:3/4] x6 |[M:4/4] x8 |[M:3/4] x6 |[M:4/4] x8 |[M:2/4] x4 |[M:4/4] x8 |[M:3/4] x6 | %64
[M:5/4] x10 |[M:3/4] x6 |[M:5/4] x10 |[M:3/4] x6 |[M:5/4] x10 |[M:3/4] x6 |[M:5/4] x10 | %71
[M:3/4] x6 |[M:4/4] x8 | x8 | x8 | x8 |[M:3/4] x6 |[M:4/4] x8 |[M:2/4] x4 |[M:4/4] x8 |[M:3/4] x6 | %81
[M:4/4] x8 |[M:3/4] x6 |[M:4/4] x8 |[M:2/4] x4 |[M:4/4] x8 |[M:3/4] x6 |[M:5/4] x10 |[M:3/4] x6 | %89
[M:5/4] x10 |[M:3/4] x6 |[M:4/4] x8 |] x8 |] %93
V:4
 x16 | x16 | x16 | x16 | x16 | x16 | x16 | x16 |[M:4/4] x8 | x8 |[M:5/4] x10 |[M:4/4] x8 | x8 | %13
 x8 | x8 | x8 | x8 |[M:6/4] x8 [^CE]4 |[M:2/4] x4 |[M:6/4] x8 [^G,B,]4 |[M:2/4] x4 | %21
[M:6/4] x8 [^CE]4 |[M:2/4] x4 |[M:6/4] x8 [^G,B,]4 |[M:2/4] x4 |[M:6/4] x8 [^A,^C]4 |[M:2/4] x4 | %27
[M:6/4] x8 [^E,^G,]4 |[M:2/4] x4 |[M:6/4] x8 [^A,^C]4 |[M:2/4] x4 |[M:6/4] x8 [^E,^G,]4 | %32
[M:2/4] x4 |[M:4/4] x8 | x8 |[M:5/4] x10 |[M:4/4] x8 | x8 | x8 | x8 | x8 | x8 |][M:4/4] x8 | x8 | %44
 x8 | x8 | x8 | x8 | x8 | x8 | x8 | x8 | x8 |[M:3/4] x6 |[M:4/4] x8 |[M:2/4] x4 |[M:4/4] x8 | %57
[M:3/4] x6 |[M:4/4] x8 |[M:3/4] x6 |[M:4/4] x8 |[M:2/4] x4 |[M:4/4] x8 |[M:3/4] x6 |[M:5/4] x10 | %65
[M:3/4] x6 |[M:5/4] x10 |[M:3/4] x6 |[M:5/4] x10 |[M:3/4] x6 |[M:5/4] x10 |[M:3/4] x6 |[M:4/4] x8 | %73
 x8 | x8 | x8 |[M:3/4] x6 |[M:4/4] x8 |[M:2/4] x4 |[M:4/4] x8 |[M:3/4] x6 |[M:4/4] x8 |[M:3/4] x6 | %83
[M:4/4] x8 |[M:2/4] x4 |[M:4/4] x8 |[M:3/4] x6 |[M:5/4] x10 |[M:3/4] x6 |[M:5/4] x10 |[M:3/4] x6 | %91
[M:4/4] x8 |] x8 |] %93

